/* Raccy - 32x32 1-bit, generated from BASE in src/render/sprite.rs */
#define raccy_width 32
#define raccy_height 32
static const unsigned char raccy_bits[] = {
    0x00, 0x00, 0x00, 0x00, 0x00, 0x60, 0x00, 0x00, 0x00, 0x60, 0x00, 0x00,
    0x00, 0x21, 0x80, 0x00, 0x80, 0x23, 0xc0, 0x01, 0xc0, 0x27, 0xe0, 0x03,
    0xc0, 0xff, 0xff, 0x03, 0xe0, 0x7f, 0xfe, 0x07, 0xe0, 0x7f, 0xfe, 0x07,
    0xf0, 0xff, 0xff, 0x0f, 0xf0, 0xff, 0xff, 0x0f, 0xf0, 0xff, 0xff, 0x0f,
    0xf0, 0x01, 0x80, 0x0f, 0xf0, 0x01, 0x80, 0x0f, 0xf0, 0xff, 0xff, 0x0f,
    0x30, 0x1e, 0x78, 0x0c, 0x20, 0x80, 0x01, 0x04, 0x40, 0x20, 0x04, 0x02,
    0x80, 0xc0, 0x03, 0x71, 0x00, 0xff, 0xff, 0x88, 0x80, 0xfd, 0x7f, 0xfb,
    0xc0, 0x1e, 0x78, 0x8f, 0xe0, 0x1e, 0x78, 0xff, 0xe0, 0x1e, 0x78, 0x8f,
    0xe0, 0x1e, 0x78, 0xff, 0xe0, 0x1e, 0x78, 0x8f, 0xe0, 0x1e, 0x78, 0x7f,
    0xc0, 0xff, 0xff, 0x27, 0xc0, 0xff, 0xff, 0x1f, 0x80, 0xff, 0xff, 0x01,
    0x00, 0x0f, 0xf0, 0x00, 0x00, 0x00, 0x00, 0x00,
};
